libs/ui/packages/crypto-icons/src/svg/CRW.svg

<svg width="24" height="24" viewBox="0 0 24 24" fill="none">
<path fill-rule="evenodd" clip-rule="evenodd" d="M18.6248 11.5096C18.474 11.5433 18.3705 11.5628 18.2692 11.5898C17.6355 11.7556 16.9973 11.8868 16.3373 11.8621C15.4553 11.8283 14.6977 11.4736 14.0295 10.9021C13.7595 10.6703 13.509 10.4146 13.251 10.1686C13.1257 10.0501 13.0957 9.91508 13.191 9.76058L13.4347 9.36533L13.764 9.72683C14.2387 10.2533 14.7465 10.7326 15.4163 10.9883C16.074 11.2388 16.7437 11.2021 17.4165 11.0888C18.3675 10.9298 19.2458 10.5496 20.1068 10.1228C20.1353 10.1086 20.1667 10.0996 20.25 10.0666C20.193 10.1738 20.1615 10.2376 20.1255 10.2976C18.8685 12.4111 17.6115 14.5246 16.353 16.6373C16.1985 16.8968 16.1407 16.9163 15.8722 16.7851C14.0977 15.9136 12.2393 15.7478 10.3207 16.0778C10.0207 16.1296 9.9675 16.1041 9.82425 15.7966C9.6675 15.4606 9.669 15.4696 10.0237 15.4013C11.0122 15.2082 12.0244 15.167 13.0253 15.2791C13.962 15.3841 14.8958 15.5221 15.7552 15.9631C15.8783 16.0268 15.9435 15.9736 16.005 15.8716C16.5503 14.9611 17.0955 14.0506 17.6437 13.1416C17.937 12.6548 18.2362 12.1718 18.531 11.6866C18.5565 11.6446 18.5767 11.6003 18.6248 11.5096ZM5.38425 11.6003C5.51025 11.8126 5.63625 12.0248 5.76375 12.2363L8.28675 16.4213C8.40675 16.6208 8.40675 16.6268 8.199 16.7221C7.75125 16.9283 7.80675 16.9816 7.533 16.5233C6.5655 14.8996 5.5995 13.2743 4.6335 11.6498L3.8505 10.3336C3.813 10.2713 3.783 10.2038 3.75 10.1386L3.77925 10.0996C3.8895 10.1483 4.0005 10.1941 4.10925 10.2451C4.7715 10.5548 5.44125 10.8428 6.15075 11.0183C7.06125 11.2448 7.9605 11.2711 8.82825 10.8383C9.36825 10.5691 9.813 10.1723 10.2135 9.72008C10.8548 8.99408 11.3752 8.17958 11.847 7.33058L11.9618 7.12508C12.024 7.21808 12.0638 7.28858 12.114 7.35008C12.3907 7.68908 12.3255 7.99058 12.0922 8.34158C11.5717 9.12458 11.0475 9.90008 10.3545 10.5361C9.735 11.1046 9.0405 11.5336 8.2245 11.7293C7.584 11.8831 6.9405 11.8523 6.29775 11.7331C6.00375 11.6783 5.71125 11.6168 5.418 11.5583L5.38425 11.6003Z" fill="#0F1529"/>
</svg>

<svg width="24" height="24" viewBox="0 0 24 24" fill="none"><path fill="#0f1529" fill-rule="evenodd" d="M18.625 11.51c-.151.033-.255.053-.356.08-.633.166-1.272.297-1.932.272-.882-.034-1.64-.388-2.307-.96-.27-.232-.521-.487-.779-.733-.125-.119-.155-.254-.06-.408l.244-.396.329.362c.475.526.982 1.006 1.652 1.261.658.25 1.328.214 2 .1.951-.158 1.83-.538 2.69-.965.03-.014.06-.023.144-.056-.057.107-.088.17-.125.23q-1.885 3.172-3.772 6.34c-.155.26-.212.28-.48.148-1.775-.871-3.634-1.037-5.552-.707-.3.052-.354.026-.497-.281-.156-.336-.155-.327.2-.396.988-.193 2-.234 3.001-.122.937.105 1.87.243 2.73.684.123.064.188.01.25-.091q.817-1.366 1.639-2.73c.293-.487.592-.97.887-1.455.026-.042.046-.087.094-.177m-13.24.09q.187.32.379.636l2.523 4.185c.12.2.12.206-.088.301-.448.206-.392.26-.666-.199q-1.452-2.436-2.9-4.873l-.783-1.316c-.037-.063-.067-.13-.1-.195l.03-.04c.11.05.22.095.33.146.661.31 1.331.598 2.04.773.911.227 1.81.253 2.678-.18.54-.269.985-.666 1.386-1.118.64-.726 1.161-1.54 1.633-2.39l.115-.205c.062.093.102.164.152.225.277.34.211.64-.022.992-.52.783-1.045 1.558-1.738 2.194-.619.569-1.313.998-2.13 1.193-.64.154-1.283.123-1.926.004q-.44-.084-.88-.175z" clip-rule="evenodd"/></svg>
